!!!OTL: ALS DIE WUNDERSCHOENE ANNA
!!!ARE: Europa, Mitteleuropa, Deutschland, Kassel
!!!SCT: K2349
!!!YEM: Copyright 1995, estate of Helmut Schaffrath.
**kern
*ICvox
*Ivox
*M2/4
*k[b-e-a-]
*E-:
{8B-
8e-
=1
8g
8b-
8b-
8b-
=2
8a-
8g
8f
8e-
=3
8b-
8f
8f
8f
=4
4f
8r}
{8ee-
=5
8b-
8a-
8g
8f
=6
4e-
8e-
8e-
=7
4cc
8cc
8cc
=8
4ee-
8dd}
{8cc
=9
8b-
8a-
8g
8f
=10
4e-
8e-
8g
=11
4b-
4b-
=12
4e-}
==
!!!AGN: Kinder - Lied, Reigen, Tanz - Spiel, Sage, Ballade
!!!ONB: ESAC (Essen Associative Code) Database: KINDER
!!!AMT: simple duple
!!!AIN: vox
!!!EED: Helmut Schaffrath
!!!EEV: 1.0
*-
